icons/svg/seamark/anchorage_tanker.svg

<?xml version="1.0" encoding="UTF-8" standalone="no"?>
<svg
   xmlns:dc="http://purl.org/dc/elements/1.1/"
   xmlns:cc="http://creativecommons.org/ns#"
   xmlns:rdf="http://www.w3.org/1999/02/22-rdf-syntax-ns#"
   xmlns:svg="http://www.w3.org/2000/svg"
   xmlns="http://www.w3.org/2000/svg"
   xmlns:sodipodi="http://sodipodi.sourceforge.net/DTD/sodipodi-0.dtd"
   xmlns:inkscape="http://www.inkscape.org/namespaces/inkscape"
   width="580"
   height="580"
   id="svg2"
   version="1.1"
   inkscape:version="0.48.4 r9939"
   sodipodi:docname="anchorage_tanker.svg">
  <defs
     id="defs13">
    <inkscape:path-effect
       effect="gears"
       id="path-effect3774"
       is_visible="true"
       teeth="6"
       phi="-1.2" />
    <inkscape:path-effect
       effect="bend_path"
       id="path-effect3772"
       is_visible="false"
       bendpath="m 95.790098,316.51174 c 144.429032,-206.42506 223.313032,-11.7428 339.548092,0"
       prop_scale="1.19"
       scale_y_rel="false"
       vertical="false"
       bendpath-nodetypes="cc" />
  </defs>
  <sodipodi:namedview
     pagecolor="#ffffff"
     bordercolor="#666666"
     borderopacity="1"
     objecttolerance="10"
     gridtolerance="10"
     guidetolerance="10"
     inkscape:pageopacity="0"
     inkscape:pageshadow="2"
     inkscape:window-width="1920"
     inkscape:window-height="1004"
     id="namedview11"
     showgrid="false"
     inkscape:zoom="0.5754386"
     inkscape:cx="112.85795"
     inkscape:cy="373.0639"
     inkscape:window-x="1680"
     inkscape:window-y="0"
     inkscape:window-maximized="1"
     inkscape:current-layer="svg2" />
  <metadata
     id="metadata2975">image/svg+xmlen<rdf:RDF>
  <cc:Work
     rdf:about="">
    <dc:format>image/svg+xml</dc:format>
    <dc:type
       rdf:resource="http://purl.org/dc/dcmitype/StillImage" />
    <dc:title />
  </cc:Work>
</rdf:RDF>
</metadata>
  <path
     style="font-size:medium;font-style:normal;font-variant:normal;font-weight:normal;font-stretch:normal;text-indent:0;text-align:start;text-decoration:none;line-height:normal;letter-spacing:normal;word-spacing:normal;text-transform:none;direction:ltr;block-progression:tb;writing-mode:lr-tb;text-anchor:start;baseline-shift:baseline;opacity:1;color:#000000;fill:#930093;fill-opacity:1;fill-rule:nonzero;stroke:none;stroke-width:1;marker:none;visibility:visible;display:inline;overflow:visible;enable-background:accumulate;font-family:Sans;-inkscape-font-specification:Sans"
     d="m 273.56959,161.17933 c -24.56937,0 -44.7213,20.15191 -44.7213,44.72134 0,16.44346 9.0327,30.89819 22.37024,38.66911 l 0,28.42248 -33.55537,0 0,22.37024 33.55537,0 0,100.72357 c -27.11289,-1.91549 -57.0352,-37.2206 -71.2094,-70.19431 11.23833,0.61148 22.27448,-0.24899 22.27448,-0.24899 0,0 -21.63465,-32.63065 -52.03763,-41.00573 -18.98648,16.40351 -22.0255,62.89717 -22.0255,62.89717 0,0 7.1476,-3.53856 15.8009,-10.13174 14.60944,41.82094 52.67899,78.05262 98.71254,88.15945 19.7692,4.3385 30.83567,26.33484 30.83567,26.33484 0,0 11.08571,-21.99634 30.85488,-26.33483 45.8014,-10.05585 83.71192,-45.9741 98.48271,-87.52741 8.86009,6.75187 16.03076,9.4997 16.03076,9.4997 0,-13.41802 -1.51915,-40.63402 -20.953,-63.43345 -30.40288,8.37508 -53.12928,41.54201 -53.12928,41.54201 0,0 11.03987,0.85932 22.27445,0.24898 -14.17624,32.96666 -44.0806,68.27906 -71.19027,70.19431 l 0,-100.72356 33.53624,0 0,-22.37024 -33.53624,0 0,-28.42248 c 13.32966,-7.77294 22.37024,-22.23155 22.37024,-38.66911 0,-24.56944 -20.17104,-44.72135 -44.74049,-44.72135 z m 0,22.3511 c 12.48345,0 22.37025,9.88686 22.37025,22.37024 0,12.48338 -9.8868,22.37024 -22.37025,22.37024 -12.48333,0 -22.35106,-9.88686 -22.35106,-22.37024 0,-12.48338 9.86773,-22.37024 22.35106,-22.37024 z"
     id="circle3"
     inkscape:connector-curvature="0" />
  <path
     d="m 361.78418,139.59731 0,15.36341 -15.36342,0 0,38.40853 38.39731,0 0,-15.36341 7.6817,-7.6817 0,-15.36342 -23.0451,0 0,-15.36341 z m -15.36342,61.45365 0,12.29073 c 0,6.91319 2.3047,13.05916 6.14537,18.43609 l 16.88854,23.04511 80.6635,0 c 12.29013,0 26.88073,-10.7549 34.56208,-21.50876 7.68131,-10.75387 15.3634,-25.34997 15.3634,-32.26317 z m 115.21437,15.36341 15.3634,0 0,7.68171 -15.3634,0 z"
     id="polygon3"
     style="opacity:1;color:#000000;fill:#930093;fill-opacity:1;fill-rule:nonzero;stroke:none;stroke-width:1;marker:none;visibility:visible;display:inline;overflow:visible;enable-background:accumulate"
     inkscape:connector-curvature="0"
     sodipodi:nodetypes="ccccccccccccsccssccccccc" />
</svg>

<svg width="580" height="580" viewBox="0 0 580 580" fill="none" xmlns="http://www.w3.org/2000/svg">
<path d="M273.57 161.179C249 161.179 228.848 181.331 228.848 205.901C228.848 222.344 237.881 236.799 251.219 244.57V272.992H217.663V295.362H251.219V396.086C224.106 394.171 194.183 358.865 180.009 325.892C191.247 326.503 202.284 325.643 202.284 325.643C202.284 325.643 180.649 293.012 150.246 284.637C131.259 301.041 128.22 347.534 128.22 347.534C128.22 347.534 135.368 343.996 144.021 337.402C158.631 379.223 196.7 415.455 242.734 425.562C262.503 429.9 273.57 451.897 273.57 451.897C273.57 451.897 284.655 429.9 304.424 425.562C350.226 415.506 388.136 379.588 402.907 338.035C411.767 344.786 418.938 347.534 418.938 347.534C418.938 334.116 417.419 306.9 397.985 284.101C367.582 292.476 344.856 325.643 344.856 325.643C344.856 325.643 355.896 326.502 367.13 325.892C352.954 358.858 323.05 394.171 295.94 396.086V295.363H329.476V272.992H295.94V244.57C309.269 236.797 318.31 222.338 318.31 205.901C318.31 181.331 298.139 161.179 273.57 161.179V161.179ZM273.57 183.53C286.053 183.53 295.94 193.417 295.94 205.901C295.94 218.384 286.053 228.271 273.57 228.271C261.086 228.271 251.219 218.384 251.219 205.901C251.219 193.417 261.086 183.53 273.57 183.53Z" fill="#930093"/>
<path d="M361.784 139.597V154.961H346.421V193.369H384.818V178.006L392.5 170.324V154.961H369.455V139.597H361.784ZM346.421 201.051V213.342C346.421 220.255 348.725 226.401 352.566 231.778L369.455 254.823H450.118C462.408 254.823 476.999 244.068 484.68 233.314C492.362 222.56 500.044 207.964 500.044 201.051H346.421ZM461.635 216.414H476.999V224.096H461.635V216.414Z" fill="#930093"/>
</svg>
